static/icons/delete.svg

<svg xmlns:dc="http://purl.org/dc/elements/1.1/" xmlns:cc="http://creativecommons.org/ns#" xmlns:rdf="http://www.w3.org/1999/02/22-rdf-syntax-ns#" xmlns:svg="http://www.w3.org/2000/svg" xmlns="http://www.w3.org/2000/svg" xmlns:sodipodi="http://sodipodi.sourceforge.net/DTD/sodipodi-0.dtd" xmlns:inkscape="http://www.inkscape.org/namespaces/inkscape" version="1.1" x="0px" y="0px" viewBox="-4.610250473022461 -4.562000274658203 833.1549682617188 828.47900390625" enable-background="new 0 0 2000 2000" xml:space="preserve">
  <path style="" d="m 776.75678,0 c -12.064,0 -24.124,4.608 -33.345,13.828 L 411.94378,345.27301 80.52575,13.879 c -18.443,-18.441 -48.255,-18.441 -66.695,0 -18.441,18.44 -18.441,48.244 0,66.685 l 331.418,331.39601 -331.418,331.399 c -18.441,18.44 -18.441,48.25 0,66.691 9.198,9.198 21.272,13.817 33.347,13.817 12.073,0 24.15,-4.619 33.348,-13.817 l 331.41803,-331.398 331.468,331.445 c 9.197,9.198 21.271,13.82 33.345,13.82 12.074,0 24.101,-4.622 33.346,-13.82 18.442,-18.441 18.442,-48.247 0,-66.687 l -331.464,-331.446 331.464,-331.44501 c 18.442,-18.441 18.442,-48.25 0,-66.691 C 800.88178,4.608 788.81678,0 776.75678,0 Z" fill="#000000"></path>
</svg>

<svg width="824px" height="824px" viewBox="0 0 824 824" version="1.1" xmlns="http://www.w3.org/2000/svg" xmlns:xlink="http://www.w3.org/1999/xlink">
    <g id="Page-1" stroke="none" stroke-width="1" fill="none" fill-rule="evenodd">
        <g id="delete" fill-rule="nonzero" fill="#000000">
            <path d="M776.75678,0 C764.69278,0 752.63278,4.608 743.41178,13.828 L411.94378,345.27301 L80.52575,13.879 C62.08275,-4.562 32.27075,-4.562 13.83075,13.879 C-4.61025,32.319 -4.61025,62.123 13.83075,80.564 L345.24875,411.96001 L13.83075,743.35901 C-4.61025,761.79901 -4.61025,791.60901 13.83075,810.05001 C23.02875,819.24801 35.10275,823.86701 47.17775,823.86701 C59.25075,823.86701 71.32775,819.24801 80.52575,810.05001 L411.94378,478.65201 L743.41178,810.09701 C752.60878,819.29501 764.68278,823.91701 776.75678,823.91701 C788.83078,823.91701 800.85778,819.29501 810.10278,810.09701 C828.54478,791.65601 828.54478,761.85001 810.10278,743.41001 L478.63878,411.96401 L810.10278,80.519 C828.54478,62.078 828.54478,32.269 810.10278,13.828 C800.88178,4.608 788.81678,0 776.75678,0 Z" id="Shape"></path>
        </g>
    </g>
</svg>
